X:1
T:Title
%%score { 1 | 2 }
L:1/8
M:3/4
K:Ab
V:1 bass nm="Grand Piano"
V:2 bass 
V:1
 z2 z2[Q:1/4=92] (3CD[F,_C=D] | [E,CE]2 [A,CE]2[K:treble] [A,CA]>[A,EG] | %2
 [A,EG]2 [A,DF]2 [B,=DG]>[B,DA] | [G,E]2 [B,DE]2 (3[CA]GA |[M:2/4] B4 |[M:1/4] [CA]>[DB] | %6
[M:3/4] [Ec]2 [Ec]2 [Ec]>[_Ge] |[M:7/8] [_Ge]2 [Fd]3 [Fc]>[FB] |[M:3/4] A2 A2 B>G |[M:2/4] [CA]4 | %10
[M:1/4] (3[CA][B,G][CA] |[M:3/4] B2 G2 (3BAB | c2 A2 [Ec]>[Ec] | [EB]2 [EB]2 [=DA]>[DF] | %14
[M:2/4] E4 |[M:1/4] [CA]>[CB] |[M:3/4] [Ec]2 [Ec]2 [Ec]>[_Ge] |[M:7/8] [_Ge]2 [Fd]3 [Fd]2 | %18
[M:3/4] c4 E>A | c4 B2 |[M:2/4] [CA]4 |] %21
V:2
 z2 z2 (3[A,,-E,-A,][A,,E,B,]A,, | A,,2 A,,2 A,,>C, | D,2 D,2 B,,>B,, | %3
 E,2 E,2 (3E,-[E,B,][E,B,C] |[M:2/4] [E,G,D]4 |[M:1/4] [A,,A,]>[A,,A,] | %6
[M:3/4] [A,,A,]2 [A,,A,]2 [A,,A,]>[C,A,] |[M:7/8] [D,A,]2 [D,A,]3 [=D,A,]>[D,B,] | %8
[M:3/4] [E,CE]2 [E,CE]2 [E,DE]>[E,B,D] |[M:2/4] [A,,A,]4 |[M:1/4] (3:2:2[A,,E,]2 [A,,E,] | %11
[M:3/4] [E,G,E]2 [E,B,E]2 (3[E,-G,E-][E,F,E][E,G,E] | [A,E]2 [A,CE]2 [A,,A,]>[A,,A,] | %13
 [B,,G,]2 [B,,G,]2 [B,,F,]>[B,,A,] |[M:2/4] [E,G,]4 |[M:1/4] [A,,E,]>[A,,E,] | %16
[M:3/4] [A,,A,]2 [A,,A,]2 [A,,A,]>[C,A,] |[M:7/8] [D,A,]2 [D,A,]3 [D,A,]2 | %18
[M:3/4] [E,A,E]4 [E,A,C]>[E,A,C] | [E,A,E]4 [D,G,D]2 |[M:2/4] [A,,A,]4 |] %21

